Catalina-dark/actions/16/document-edit-decrypt-verify.svg

<?xml version="1.0" encoding="UTF-8" standalone="no"?>
<svg
   xmlns:dc="http://purl.org/dc/elements/1.1/"
   xmlns:cc="http://creativecommons.org/ns#"
   xmlns:rdf="http://www.w3.org/1999/02/22-rdf-syntax-ns#"
   xmlns:svg="http://www.w3.org/2000/svg"
   xmlns="http://www.w3.org/2000/svg"
   xmlns:sodipodi="http://sodipodi.sourceforge.net/DTD/sodipodi-0.dtd"
   xmlns:inkscape="http://www.inkscape.org/namespaces/inkscape"
   width="16"
   height="16"
   viewBox="0 0 16 16"
   version="1.1"
   id="svg7"
   sodipodi:docname="document-edit-decrypt-verify.svg"
   inkscape:version="0.92.4 5da689c313, 2019-01-14">
  <metadata
     id="metadata11">
    <rdf:RDF>
      <cc:Work
         rdf:about="">
        <dc:format>image/svg+xml</dc:format>
        <dc:type
           rdf:resource="http://purl.org/dc/dcmitype/StillImage" />
      </cc:Work>
    </rdf:RDF>
  </metadata>
  <sodipodi:namedview
     pagecolor="#ffffff"
     bordercolor="#666666"
     borderopacity="1"
     objecttolerance="10"
     gridtolerance="10"
     guidetolerance="10"
     inkscape:pageopacity="0"
     inkscape:pageshadow="2"
     inkscape:window-width="640"
     inkscape:window-height="480"
     id="namedview9"
     showgrid="false"
     inkscape:zoom="14.75"
     inkscape:cx="6.8135593"
     inkscape:cy="8"
     inkscape:window-x="0"
     inkscape:window-y="26"
     inkscape:window-maximized="0"
     inkscape:current-layer="svg7" />
  <defs
     id="defs3">
    <style
       id="current-color-scheme"
       type="text/css">
   .ColorScheme-Text { color:#5c616c; } .ColorScheme-Highlight { color:#5294e2; }
  </style>
  </defs>
  <path
     style="fill:#f1f6f8;fill-opacity:0.8509804"
     class="ColorScheme-Text"
     d="M 2 1.9902344 L 2 3.9902344 L 4 3.9902344 L 4 1.9902344 L 2 1.9902344 z M 7 1.9902344 L 7 3.9902344 L 9 3.9902344 L 9 1.9902344 L 7 1.9902344 z M 12 1.9902344 L 12 3.9902344 L 14 3.9902344 L 14 1.9902344 L 12 1.9902344 z M 4 4.9902344 L 4 6.9902344 L 6 6.9902344 L 6 4.9902344 L 4 4.9902344 z M 10 4.9902344 L 10 6.9902344 L 12 6.9902344 L 12 4.9902344 L 10 4.9902344 z M 2 7.9902344 L 2 14 C 2 15 3 15 3 15 L 13 15 C 13 15 14 15 14 14 L 14 8.0097656 L 12 8.0097656 L 12 12.996094 L 4 12.996094 L 4 7.9902344 L 2 7.9902344 z M 10 7.9902344 L 7 10.990234 L 6 9.9902344 L 5 10.990234 L 6 11.990234 L 7 12.990234 L 11 8.9902344 L 10 7.9902344 z"
     id="path5" />
</svg>

<svg width="16" height="16" version="1.1" viewBox="0 0 16 16" xmlns="http://www.w3.org/2000/svg">
<defs>
<style id="current-color-scheme" type="text/css">.ColorScheme-Text { color:#5c616c; } .ColorScheme-Highlight { color:#5294e2; }</style>
</defs>
<path class="ColorScheme-Text" d="m2 1.9902v2h2v-2h-2zm5 0v2h2v-2h-2zm5 0v2h2v-2h-2zm-8 3v2h2v-2h-2zm6 0v2h2v-2h-2zm-8 3v6.0098c0 1 1 1 1 1h10s1 0 1-1v-5.9902h-2v4.9863h-8v-5.0059h-2zm8 0-3 3-1-1-1 1 2 2 4-4-1-1z" fill="#dedede" fill-opacity=".85098"/>
</svg>
